src/icon-help-button-question-mark.svg

<svg xmlns="http://www.w3.org/2000/svg" class="dibs-vg-svg svg-icon-help-button-question-mark" viewBox="0 0 250 250">
    <path d="M180.028234,18.8272298 C193.34646,31.5097731 200,47.5398787 200,66.92878 C200,78.8586834 197.603834,88.5531341 192.800357,95.8211638 C187.985734,103.089193 178.178171,113.906987 163.199346,128.263312 C152.288432,138.699169 145.255963,147.461245 141.92362,154.740508 C138.591277,161.817569 136.930678,171.691755 136.930678,186.620984 L107.340813,186.620984 C107.340813,169.827005 109.369195,157.717367 113.069322,148.022916 C116.769448,138.328466 125.284196,127.151202 138.223494,114.468659 L151.731184,101.235677 C155.799094,97.3152101 159.131436,93.4059762 161.717067,89.2945406 C166.33108,82.0265109 168.560071,74.5675129 168.560071,66.7490452 C168.560071,55.7402831 165.238874,46.2255673 158.574188,38.2161312 C152.098967,30.0157268 141.188053,26.0952595 125.841444,26.0952595 C106.961884,26.0952595 93.8442678,33.1835543 86.6223345,46.9782071 C82.5544245,54.6281734 80.1471135,65.4347338 79.5898655,80.3527297 L50,80.3527297 C50,56.1109863 56.8430047,36.54235 70.529014,21.9950573 C84.2150234,7.44776455 103.083439,0 126.944795,0 C149.145553,0 166.710008,6.33565491 180.028234,18.8272298 Z M107.330782,250 L107.330782,214.56976 L140.620774,214.56976 L140.620774,250 L107.330782,250 Z"/>
</svg>

<svg xmlns="http://www.w3.org/2000/svg" class="dibs-vg-svg svg-icon-help-button-question-mark" viewBox="0 0 250 250">
    <path d="M180.028 18.827C193.346 31.51 200 47.54 200 66.93c0 11.93-2.396 21.624-7.2 28.892-4.814 7.268-14.622 18.086-29.6 32.442-10.912 10.436-17.944 19.198-21.276 26.478-3.333 7.077-4.993 16.95-4.993 31.88h-29.59c0-16.794 2.028-28.904 5.728-38.598 3.7-9.695 12.215-20.872 25.154-33.554l13.508-13.233c4.068-3.92 7.4-7.83 9.986-11.941 4.614-7.268 6.843-14.727 6.843-22.546 0-11.009-3.321-20.523-9.986-28.533-6.475-8.2-17.386-12.12-32.733-12.12-18.88 0-31.997 7.088-39.219 20.882-4.068 7.65-6.475 18.457-7.032 33.375H50c0-24.242 6.843-43.81 20.529-58.358C84.215 7.448 103.083 0 126.945 0c22.2 0 39.765 6.336 53.083 18.827zM107.331 250v-35.43h33.29V250h-33.29z"/>
</svg>
